X: 14789
T: Gan Ainm
R: polka
M: 2/4
K: Gmajor
BG G/F/G|BG DG|FD D/^C/D|FD AD|
BG G/F/G|BG DG|FD D/^C/D|GG G||
G|c3 B|A3 G|FD AD|BD AD|
c3 B|A3 G|FD AD|GG G||
d z g z|b3 g|fd ad|gd BG|
d z g z|b3 g|fd ad|gg g||

